X:176
T:The maple leaf
R:Reel
S:Galt Barber
Z:Transcription, chords:Mike Long
M:C|
L:1/8
K:G
"Em"E2EF GEE2|"G"B2AB "D"AGED|"Em"E2EF GFGA|\
"G"BddB "Am"cBAG|"Em"(3(EFG) "D"FA "Em"GEE2|
"G"B2AB "D"AGED|"Em"Be ~e2 BAGB|"C"c2Bc "Am"AGED:|\
|:"Em"Beed efge|Beef edBA|
Beed efg2|"C"a2ge "D"fdBA|"Em"Beed efge|Beef edB2|\
"C"a2ge fdB2|"Am"c2Bc AGED:|
